build/img/sprite/icon-measuring.svg

<svg width="38" height="26" viewBox="0 0 38 26" fill="none" xmlns="http://www.w3.org/2000/svg">
<path fill-rule="evenodd" clip-rule="evenodd" d="M23.6698 19.1299H37.1837C37.6337 19.1299 38 19.5272 38 20.0156V22.1081V22.8288V25.3956C38 25.7295 37.7508 26 37.4434 26C37.1359 26 36.8867 25.7295 36.8867 25.3956V23.4332H30.9103C30.6028 23.4332 30.3537 23.1627 30.3537 22.8288C30.3537 22.495 30.6028 22.2245 30.9103 22.2245H36.8867V22.1081V20.3387H23.6698V22.2245H28.644C28.9515 22.2245 29.2006 22.495 29.2006 22.8288C29.2006 23.1627 28.9515 23.4332 28.644 23.4332H23.6698V24.54C23.6698 25.1489 23.2122 25.6442 22.6496 25.6442H11.8349C5.30916 25.6442 0 19.8922 0 12.8221C0 5.75199 5.30916 0 11.8349 0C17.0478 0 21.484 3.67052 23.0581 8.75128H25.0704C25.5548 8.75128 25.9487 9.13581 26.0506 9.70825L26.8125 14.0052C26.8774 14.367 26.8109 14.702 26.6249 14.9471C26.4463 15.1824 26.174 15.312 25.8582 15.312H23.6698V19.1299ZM25.6962 14.1033L24.9615 9.9599H23.3723C23.5668 10.8805 23.6698 11.8386 23.6698 12.8221V14.1033H25.6962ZM1.12768 13.4265H3.15563L3.22852 13.427C3.24225 13.4271 3.25664 13.4273 3.27164 13.4273C3.42186 13.4273 3.62744 13.4122 3.79763 13.2245C3.98228 13.0209 3.97679 12.7793 3.97375 12.6495C3.97278 12.6075 3.97182 12.5641 3.97375 12.507C4.02815 10.8882 4.5033 9.33025 5.34791 8.00148C5.52254 7.72678 5.45894 7.35039 5.20593 7.16078C4.95299 6.97117 4.60616 7.04023 4.4316 7.31493C3.50906 8.76643 2.97216 10.4569 2.87227 12.2177H1.12768C1.40941 6.29357 5.8088 1.52861 11.2783 1.22418V3.11355C9.52509 3.22918 7.86073 3.89099 6.45154 5.03539C6.20536 5.23523 6.15504 5.61404 6.33917 5.88132C6.4485 6.04007 6.61586 6.12371 6.78538 6.12371C6.90138 6.12371 7.01835 6.08455 7.11832 6.00332C8.40483 4.9586 9.9344 4.37302 11.5423 4.30976C11.5952 4.30765 11.6369 4.30866 11.6699 4.30945L11.6728 4.30952L11.6754 4.30957C11.7967 4.31193 12.019 4.31626 12.2051 4.11669C12.395 3.91325 12.3932 3.67147 12.3919 3.49484V3.49477L12.3916 1.22418C18.0458 1.53901 22.5565 6.62065 22.5565 12.822V19.7341V21.3362H12.262C11.7195 21.3362 11.2783 21.8149 11.2783 22.4032V24.4199C5.80888 24.1155 1.40949 19.3506 1.12768 13.4265ZM12.3916 24.4355H22.5566V22.8288V22.545H12.3916V24.4355Z" fill="black"/>
<path fill-rule="evenodd" clip-rule="evenodd" d="M17.1984 19.9333H11.8759C8.38314 19.9333 5.5415 17.0169 5.5415 13.4322C5.5415 9.84872 8.38314 6.93333 11.8759 6.93333C15.3676 6.93333 18.2082 9.8488 18.2082 13.4322V18.8937C18.2082 19.4669 17.7552 19.9333 17.1984 19.9333ZM17.0827 13.4322C17.0827 10.487 14.7469 8.09082 11.8759 8.09082C9.00375 8.09082 6.66702 10.487 6.66702 13.4322C6.66702 16.3787 9.00375 18.7759 11.8759 18.7759H17.0827V13.4322Z" fill="black"/>
<path fill-rule="evenodd" clip-rule="evenodd" d="M13.8987 15.6H9.85167C9.22134 15.6 8.7085 15.1112 8.7085 14.5103V12.354C8.7085 11.7545 9.22134 11.2667 9.85167 11.2667H13.8987C14.529 11.2667 15.0418 11.7545 15.0418 12.354V14.5103C15.0418 15.1112 14.529 15.6 13.8987 15.6ZM13.7703 12.4773H9.98001V14.3894H13.7703V12.4773Z" fill="black"/>
</svg>

<svg width="38" height="26" fill="none" xmlns="http://www.w3.org/2000/svg"><path fill-rule="evenodd" clip-rule="evenodd" d="M23.67 19.13h13.514c.45 0 .816.397.816.886v5.38c0 .334-.25.604-.557.604-.307 0-.556-.27-.556-.604v-1.963H30.91c-.307 0-.556-.27-.556-.604 0-.334.249-.605.556-.605h5.977v-1.886H23.67v1.886h4.974c.308 0 .557.271.557.605 0 .334-.25.604-.557.604H23.67v1.107c0 .609-.458 1.104-1.02 1.104H11.835C5.309 25.644 0 19.892 0 12.822 0 5.752 5.31 0 11.835 0c5.213 0 9.649 3.67 11.223 8.751h2.012c.485 0 .879.385.98.957l.762 4.297c.065.362-.001.697-.187.942a.936.936 0 01-.767.365H23.67v3.818zm2.026-5.027l-.735-4.143h-1.589c.195.92.298 1.879.298 2.862v1.281h2.026zm-24.568-.676h2.144c.15 0 .355-.015.526-.202.184-.204.179-.446.176-.575a2.32 2.32 0 010-.143 8.957 8.957 0 011.374-4.506.638.638 0 00-.142-.84.53.53 0 00-.774.154 10.216 10.216 0 00-1.56 4.903H1.128c.281-5.924 4.68-10.69 10.15-10.994v1.89c-1.753.115-3.417.777-4.826 1.921a.64.64 0 00-.113.846.526.526 0 00.78.122c1.286-1.044 2.815-1.63 4.423-1.693.053-.002.095-.001.128 0h.005c.122.002.344.006.53-.193.19-.204.188-.446.187-.622v-2.27c5.654.314 10.165 5.396 10.165 11.597v8.514H12.261c-.543 0-.984.479-.984 1.067v2.017c-5.47-.305-9.869-5.07-10.15-10.994zm11.264 11.009h10.165v-1.891H12.392v1.89z" fill="#000"/><path fill-rule="evenodd" clip-rule="evenodd" d="M17.198 19.933h-5.322c-3.493 0-6.334-2.916-6.334-6.5s2.841-6.5 6.334-6.5c3.492 0 6.332 2.916 6.332 6.5v5.46c0 .574-.453 1.04-1.01 1.04zm-.115-6.5c0-2.946-2.336-5.342-5.207-5.342-2.872 0-5.209 2.396-5.209 5.341 0 2.947 2.337 5.344 5.209 5.344h5.207v-5.344z" fill="#000"/><path fill-rule="evenodd" clip-rule="evenodd" d="M13.899 15.6H9.852c-.63 0-1.143-.489-1.143-1.09v-2.156c0-.6.512-1.087 1.143-1.087h4.047c.63 0 1.143.488 1.143 1.087v2.156c0 .601-.513 1.09-1.143 1.09zm-.129-3.123H9.98v1.912h3.79v-1.912z" fill="#000"/></svg>
